fa/naira-sign.svg

<svg xmlns="http://www.w3.org/2000/svg" viewBox="0 0 448 512" height="1em" width="1em">
  <path d="M262.5 256H320V64c0-17.67 14.3-32 32-32s32 14.33 32 32v192h32c17.7 0 32 14.3 32 32s-14.3 32-32 32h-32v128c0 14.1-9.2 26.5-22.7 30.6-13.5 4.1-28.1-1.1-35.9-12.8L228.2 320H128v128c0 17.7-14.3 32-32 32-17.67 0-32-14.3-32-32V320H32c-17.67 0-32-14.3-32-32s14.33-32 32-32h32V64c0-14.1 9.23-26.54 22.73-30.63 13.47-4.08 28.07 1.15 35.87 12.88L262.5 256zm42.6 64 14.9 22.3V320h-14.9zm-119.6-64L128 169.7V256h57.5z"/>
</svg>

<svg xmlns="http://www.w3.org/2000/svg" viewBox="0 0 448 512" height="1em" width="1em">
  <path d="M262.5 256H320V64C320 46.33 334.3 32 352 32C369.7 32 384 46.33 384 64V256H416C433.7 256 448 270.3 448 288C448 305.7 433.7 320 416 320H384V448C384 462.1 374.8 474.5 361.3 478.6C347.8 482.7 333.2 477.5 325.4 465.8L228.2 320H128V448C128 465.7 113.7 480 96 480C78.33 480 64 465.7 64 448V320H32C14.33 320 0 305.7 0 288C0 270.3 14.33 256 32 256H64V64C64 49.9 73.23 37.46 86.73 33.37C100.2 29.29 114.8 34.52 122.6 46.25L262.5 256zM305.1 320L320 342.3V320H305.1zM185.5 256L128 169.7V256H185.5z"/>
</svg>
